X:168
T:Arnold Kennedy's Jig
T:Play with a slightly dotted rhythm throughout
S:Carter Newell
M:6/8
Z:<http://tunes.nhcountrydance.com>.
K:G
Bc^c |\ 
"G"  d^cd .b2f | "G"  agf gdB | "G"  DGB edB   | "C" c3 "Am" (cBc) |
"D7" D2 F A2 d | "D7" fag f2e | "D7" d^cd ed=c | "G" B3 Bc^c ||
"G"  d^cd .b2f | "G"  agf gdB | "G"  DGB edB   | "C" c3 "Am" (cBc) |
"D7" D2 F A2 d | "D7" fag Tf2d| "D7" cAF DEF   | "G" G[GB][GB] [G2B2] z |]
"G"  G,B,D G2B | "G"  d3 d^cd | "G"  DGB edB   | "C" c3 "Am" (cBc) |
"D7" D2 F A2 d | "D7" fag Tf2e| "D7" d^cd ed=c | "G" BBB .Bz G,||
"G"  G,B,D G2B | "G"  d3 d^cd | "G"  DGB edB   | "C" c3 "Am" (cBc) |
"D7" D2 F A2 d | "D7" fag f2d | "D7" cAF DEF   | "G" G zz |]

